X: 120
T: A Bright May Morning
R: reel
M: 4/4
K: Gmajor
|:Gged B2 AG|(3FED AD BDAD|Gged B2 AF|DEGA BG TG2:|
gedB cBcd|ea{b}a^g aeef|gedc BcBA|Ggga bg Tg2|
gedB cBcd|ea{b}a^g aee=g|bgaf gfeg|dega bg Tg2||

